svg/u1f695.svg

<svg viewBox="0 0 128 128" xmlns="http://www.w3.org/2000/svg">
  <path d="M30.18,72.92c-0.95,0.86-19.68,2.95-23.47,5.89c-2.24,1.74-3.05,4.53-3.37,12.94s-0.11,14.1,0.21,16 c0.17,1.04,1.7,4.97,4.1,5.47c2.53,0.53,110.28,0.21,111.97,0.21c1.68,0,5.16-3.68,5.05-6.31s-0.11-25.89-0.21-27.99 s-4.53-4.31-5.89-5.16c-1.37-0.84-4-5.79-5.89-8.31c-1.42-1.89-8.1-9.68-14.84-12.94c-5.68-2.75-10.73-3.79-23.68-3.68 c-12.1,0.1-20.31,1.26-26.73,5.58S31.23,71.97,30.18,72.92z" fill="#FFD61C"/>
  <path d="M5.91,94.64c0,0,5.73,0.09,6.51-0.14c1.58-0.47,4.47-8.37,3.26-9.45c-0.5-0.44-8.34-0.26-8.34-0.26 L5.91,94.64z" fill="#FFFFFF"/>
  <path d="M3.26,94.64l3.89,0.01l0.22-9.87l-3.49,0.01c0,0-0.48,3.5-0.55,5.28 C3.26,91.84,3.26,94.64,3.26,94.64z" fill="#FEEAD0"/>
  <path d="M57.96,50.36l33.09,0c0,0-4.19-11.95-5.35-12.57c-0.7-0.38-22.28-0.11-22.79,0.16 C61.62,38.66,57.96,50.36,57.96,50.36z" fill="#9A9A9A"/>
  <path d="M33.15,79.14c1,1,4.62,0.97,12.08,1.14c7.46,0.16,59.76,0.41,60.57,0.16s5.43-5.6,5.6-7.05 c0.16-1.46-9.01-14.52-15.77-17.54c-6.22-2.78-30.68-4.33-40.89-0.38c-6.38,2.46-13.8,10.22-18.75,16.79 C33.98,74.92,31.94,77.93,33.15,79.14z" fill="#536F7D"/>
  <path d="M75.48,57.66c0,0-4.71-0.27-9.77,0.08c-3.98,0.27-8.27,0.82-11.88,2.92 c-8.19,4.78-13.22,12.89-12.73,14.03c0.49,1.14,1.46,1.87,9.89,1.95c8.43,0.08,24,0.05,24.21-0.18 C75.2,76.21,75.48,57.66,75.48,57.66z" fill="#AFE3FB"/>
  <path d="M38.06,82.89c0.28,0.73,2.69,2.34,7.52,2.02c3.94-0.27,4.91-4.03,5.11-6.76 c0.27-3.72-2.37-5.91-2.37-5.91s-3.05,0.9-3.18,1.12c-0.13,0.22-6.72,6.81-6.72,6.81S37.7,81.95,38.06,82.89z" fill="#DD801B"/>
  <path d="M43.03,81.77c3.9-0.13,7.3-7.21,5.73-9.23c-1.57-2.02-5.15-0.08-7.17,2.1 c-2.73,2.96-3.18,5.51-3.18,5.51S39.01,81.91,43.03,81.77z" fill="#FFD61C"/>
  <path d="M80.12,57.72c0,0-0.07,18.67-0.04,18.68c0.85,0.15,23.6,0.09,23.83-0.09 c0.22-0.18,2.69-2.87,2.69-3.31c0-0.45-6.31-10.12-12.5-13.3C89.67,57.42,80.12,57.72,80.12,57.72z" fill="#AFE3FB"/>
  <path d="M124.55,82.54c0,0-5.55-0.33-6.34,0.2c-1.02,0.7-0.86,10.39,0.25,10.93c1.1,0.53,6.13,0.09,6.13,0.09 s0.02-2.94,0.02-5.89C124.61,84.19,124.55,82.54,124.55,82.54z" fill="#FF2825"/>
  <rect height="6.78" fill="#4E433D" width="6.56" x="43.73" y="94.2"/>
  <rect height="6.78" fill="#4E433D" width="6.56" x="50.26" y="87.45"/>
  <rect height="6.78" fill="#4E433D" width="6.56" x="56.82" y="94.2"/>
  <rect height="6.78" fill="#4E433D" width="6.56" x="63.35" y="87.42"/>
  <rect height="6.78" fill="#4E433D" width="6.56" x="69.83" y="94.17"/>
  <rect height="6.78" fill="#4E433D" width="6.56" x="76.33" y="87.4"/>
  <rect height="6.78" fill="#4E433D" width="6.56" x="82.84" y="94.12"/>
  <path d="M17.81,110.31c0.09,5.52,4.49,13.46,14.07,13.52s14.55-7.28,14.25-14.8 c-0.31-7.64-6.25-13.04-14.8-12.8C23.33,96.47,17.69,102.67,17.81,110.31z" fill="#4E433D"/>
  <path d="M24.48,109.85c0.05,2.91,2.41,7.1,7.56,7.13c5.15,0.03,7.64-3.62,7.48-7.58 c-0.17-4.03-3.46-7.03-7.78-6.97C27.44,102.5,24.41,105.82,24.48,109.85z" fill="#C8C8C8"/>
  <path d="M88.53,110.78c0.09,5.48,4.39,13.36,13.77,13.42s14.24-7.22,13.95-14.68 c-0.3-7.59-6.11-12.94-14.48-12.7C93.94,97.04,88.41,103.19,88.53,110.78z" fill="#4E433D"/>
  <path d="M94.79,110.34c0.05,2.91,2.41,7.1,7.56,7.13s7.64-3.62,7.48-7.58c-0.17-4.03-3.46-7.03-7.78-6.97 C97.76,102.99,94.73,106.31,94.79,110.34z" fill="#C8C8C8"/>
</svg>

<svg viewBox="0 0 128 128" xmlns="http://www.w3.org/2000/svg">
  <defs/>
  <path d="M30.18,72.92 C29.23,73.78 10.5,75.87 6.71,78.81 C4.47,80.55 3.66,83.34 3.34,91.75 C3.02,100.16 3.23,105.85 3.55,107.75 C3.72,108.79 5.25,112.72 7.65,113.22 C10.18,113.75 117.93,113.43 119.62,113.43 C121.3,113.43 124.78,109.75 124.67,107.12 C124.56,104.49 124.56,81.23 124.46,79.13 C124.36,77.03 119.93,74.82 118.57,73.97 C117.2,73.13 114.57,68.18 112.68,65.66 C111.26,63.77 104.58,55.98 97.84,52.72 C92.16,49.97 87.11,48.93 74.16,49.04 C62.06,49.14 53.85,50.3 47.43,54.62 C41.01,58.94 31.23,71.97 30.18,72.92 Z" fill="#FFD61C"/>
  <path d="M5.91,94.64 C5.91,94.64 11.64,94.73 12.42,94.5 C14,94.03 16.89,86.13 15.68,85.05 C15.18,84.61 7.34,84.79 7.34,84.79 L5.91,94.64 Z" fill="#FFFFFF"/>
  <path d="M3.26,94.64 L7.15,94.65 L7.37,84.78 L3.88,84.79 C3.88,84.79 3.4,88.29 3.33,90.07 C3.26,91.84 3.26,94.64 3.26,94.64 Z" fill="#FEEAD0"/>
  <path d="M57.96,50.36 L91.05,50.36 C91.05,50.36 86.86,38.41 85.7,37.79 C85,37.41 63.42,37.68 62.91,37.95 C61.62,38.66 57.96,50.36 57.96,50.36 Z" fill="#9A9A9A"/>
  <path d="M33.15,79.14 C34.15,80.14 37.77,80.11 45.23,80.28 C52.69,80.44 104.99,80.69 105.8,80.44 C106.61,80.19 111.23,74.84 111.4,73.39 C111.56,71.93 102.39,58.87 95.63,55.85 C89.41,53.07 64.95,51.52 54.74,55.47 C48.36,57.93 40.94,65.69 35.99,72.26 C33.98,74.92 31.94,77.93 33.15,79.14 Z" fill="#536F7D"/>
  <path d="M75.48,57.66 C75.48,57.66 70.77,57.39 65.71,57.74 C61.73,58.01 57.44,58.56 53.83,60.66 C45.64,65.44 40.61,73.55 41.1,74.69 C41.59,75.83 42.56,76.56 50.99,76.64 C59.42,76.72 74.99,76.69 75.2,76.46 C75.2,76.21 75.48,57.66 75.48,57.66 Z" fill="#AFE3FB"/>
  <path d="M38.06,82.89 C38.34,83.62 40.75,85.23 45.58,84.91 C49.52,84.64 50.49,80.88 50.69,78.15 C50.96,74.43 48.32,72.24 48.32,72.24 C48.32,72.24 45.27,73.14 45.14,73.36 C45.01,73.58 38.42,80.17 38.42,80.17 C38.42,80.17 37.7,81.95 38.06,82.89 Z" fill="#DD801B"/>
  <path d="M43.03,81.77 C46.93,81.64 50.33,74.56 48.76,72.54 C47.19,70.52 43.61,72.46 41.59,74.64 C38.86,77.6 38.41,80.15 38.41,80.15 C38.41,80.15 39.01,81.91 43.03,81.77 Z" fill="#FFD61C"/>
  <path d="M80.12,57.72 C80.12,57.72 80.05,76.39 80.08,76.4 C80.93,76.55 103.68,76.49 103.91,76.31 C104.13,76.13 106.6,73.44 106.6,73 C106.6,72.55 100.29,62.88 94.1,59.7 C89.67,57.42 80.12,57.72 80.12,57.72 Z" fill="#AFE3FB"/>
  <path d="M124.55,82.54 C124.55,82.54 119,82.21 118.21,82.74 C117.19,83.44 117.35,93.13 118.46,93.67 C119.56,94.2 124.59,93.76 124.59,93.76 C124.59,93.76 124.61,90.82 124.61,87.87 C124.61,84.19 124.55,82.54 124.55,82.54 Z" fill="#FF2825"/>
  <path d="M43.73,94.2 L50.29,94.2 L50.29,100.98 L43.73,100.98 L43.73,94.2 Z" fill="#4E433D"/>
  <path d="M50.26,87.45 L56.82,87.45 L56.82,94.23 L50.26,94.23 L50.26,87.45 Z" fill="#4E433D"/>
  <path d="M56.82,94.2 L63.38,94.2 L63.38,100.98 L56.82,100.98 L56.82,94.2 Z" fill="#4E433D"/>
  <path d="M63.35,87.42 L69.91,87.42 L69.91,94.2 L63.35,94.2 L63.35,87.42 Z" fill="#4E433D"/>
  <path d="M69.83,94.17 L76.39,94.17 L76.39,100.95 L69.83,100.95 L69.83,94.17 Z" fill="#4E433D"/>
  <path d="M76.33,87.4 L82.89,87.4 L82.89,94.18 L76.33,94.18 L76.33,87.4 Z" fill="#4E433D"/>
  <path d="M82.84,94.12 L89.4,94.12 L89.4,100.9 L82.84,100.9 L82.84,94.12 Z" fill="#4E433D"/>
  <path d="M17.81,110.31 C17.9,115.83 22.3,123.77 31.88,123.83 C41.46,123.89 46.43,116.55 46.13,109.03 C45.82,101.39 39.88,95.99 31.33,96.23 C23.33,96.47 17.69,102.67 17.81,110.31 Z" fill="#4E433D"/>
  <path d="M24.48,109.85 C24.53,112.76 26.89,116.95 32.04,116.98 C37.19,117.01 39.68,113.36 39.52,109.4 C39.35,105.37 36.06,102.37 31.74,102.43 C27.44,102.5 24.41,105.82 24.48,109.85 Z" fill="#C8C8C8"/>
  <path d="M88.53,110.78 C88.62,116.26 92.92,124.14 102.3,124.2 C111.68,124.26 116.54,116.98 116.25,109.52 C115.95,101.93 110.14,96.58 101.77,96.82 C93.94,97.04 88.41,103.19 88.53,110.78 Z" fill="#4E433D"/>
  <path d="M94.79,110.34 C94.84,113.25 97.2,117.44 102.35,117.47 C107.5,117.5 109.99,113.85 109.83,109.89 C109.66,105.86 106.37,102.86 102.05,102.92 C97.76,102.99 94.73,106.31 94.79,110.34 Z" fill="#C8C8C8"/>
</svg>
